Suru++-Ubuntu/apps/scalable/gnome-color-manager.svg

<svg width="256" height="256" version="1.1" viewBox="0 0 256 256" xmlns="http://www.w3.org/2000/svg" xmlns:xlink="http://www.w3.org/1999/xlink">
 <defs>
  <linearGradient id="linearGradient1108" x1="296" x2="296" y1="-212" y2="236" gradientUnits="userSpaceOnUse">
   <stop style="stop-color:#ffffff" offset="0"/>
   <stop style="stop-color:#ffffff;stop-opacity:.09803922" offset=".125"/>
   <stop style="stop-color:#000000;stop-opacity:.09803922" offset=".925"/>
   <stop style="stop-color:#000000;stop-opacity:.49803922" offset="1"/>
  </linearGradient>
  <clipPath id="clipPath1082-3">
   <path d="M 361.9375,-212 C 507.2348,-212 528,-191.28677 528,-46.125 V 70.125 C 528,215.28618 507.2348,236 361.9375,236 H 214.0625 C 68.7652,236 48,215.28618 48,70.125 V -46.125 C 48,-191.28677 68.7652,-212 214.0625,-212 Z" style="fill:#8c59d9"/>
  </clipPath>
  <clipPath id="clipPath951">
   <path d="M 188.96875,44 C 261.6174,44 272,54.356615 272,126.9375 v 58.125 C 272,257.64309 261.6174,268 188.96875,268 h -73.9375 C 42.3826,268 32,257.64309 32,185.0625 v -58.125 C 32,54.356615 42.3826,44 115.03125,44 Z" style="fill:#8c59d9"/>
  </clipPath>
  <filter id="filter1010" x="-.02" y="-.03" width="1.046" height="1.05" style="color-interpolation-filters:sRGB">
   <feGaussianBlur stdDeviation="2.32"/>
  </filter>
 </defs>
 <path d="m5.5683594 101.36914v56.125c0 9.07257 0.1620995 17.17296 0.5878906 24.40234 0.2128956 3.6147 0.4922655 7.01124 0.8496094 10.20313 0.3573439 3.19188 0.7931865 6.18021 1.3203125 8.97461s1.1449457 5.39611 1.8671871 7.81836c0.722242 2.42224 1.547543 4.66482 2.490235 6.74023 0.942691 2.07541 2.002932 3.98242 3.191406 5.73633s2.505252 3.35478 3.964844 4.8125c1.459591 1.45773 3.062317 2.77211 4.818359 3.95898 1.756042 1.18688 3.666314 2.24616 5.744141 3.1875 2.077826 0.94135 4.323102 1.7652 6.748047 2.48633 2.424944 0.72114 5.028775 1.33898 7.826171 1.86524 2.797397 0.52626 5.787241 0.96165 8.982422 1.31836 3.195182 0.3567 6.596543 0.63518 10.214844 0.84765 7.236602 0.42496 15.3447 0.58594 24.425781 0.58594h73.937501c9.08108 0 17.18918-0.16098 24.42578-0.58594 3.6183-0.21247 7.01771-0.49095 10.21289-0.84765 3.19518-0.35671 6.18503-0.7921 8.98242-1.31836 2.7974-0.52626 5.40318-1.1441 7.82813-1.86524 2.42494-0.72113 4.67022-1.54498 6.74805-2.48633 2.07782-0.94134 3.98809-2.00062 5.74414-3.1875 1.75604-1.18687 3.35681-2.50125 4.8164-3.95898 1.45959-1.45772 2.77832-3.05859 3.9668-4.8125 1.18847-1.75391 2.24676-3.66092 3.18945-5.73633s1.76995-4.31799 2.49219-6.74023c0.72224-2.42225 1.34006-5.02396 1.86719-7.81836 0.52712-2.7944 0.96297-5.78273 1.32031-8.97461 0.35734-3.19189 0.63671-6.58843 0.84961-10.20313 0.42579-7.22938 0.58789-15.32977 0.58789-24.40234v-56.125c0-72.580891-10.3826-82.937499-83.03125-82.937499h-73.937501c-72.648654 0-83.03125 10.356608-83.03125 82.937499z" style="filter:url(#filter1010);opacity:.2"/>
 <g transform="translate(-26.432006,-27.568012)" clip-path="url(#clipPath951)" style="enable-background:new">
  <g transform="matrix(.5 0 0 .5 -80.050872 141.94904)" style="enable-background:new">
   <path d="m622.248-130.2479c-1.59052 1.59052 65.75205 158.248 65.75205 158.248l-65.75205 158.248s-158.248-83.64916-158.248-158.248c0-74.598837 158.248-158.248 158.248-158.248z" style="fill:#46a926"/>
   <path d="m305.75211 186.2481c1.59041-1.59052-65.75205-158.248-65.75205-158.248l65.75205-158.248s158.24789 83.649163 158.24789 158.248c0 74.59884-158.24789 158.248-158.24789 158.248z" style="fill:#f22c42"/>
   <path d="M 622.24789,-130.2479 C 620.65748,-128.65738 464,-195.99995 464,-195.99995 L 305.752,-130.2479 464,28.0001 Z" style="fill:#ffda64"/>
   <path d="m305.75211 186.2481 158.24789 65.5484s156.65748-67.13892 158.248-65.5484l-158.248-158.248z" style="fill:#2f5fdd"/>
   <path transform="matrix(2,0,0,2,212.96576,-228.76206)" d="m226.91602 27.083984c-0.15724-0.110142-0.27772-0.253333-0.4375-0.361328-1.75605-1.186864-3.66632-2.244212-5.74414-3.185547-2.07783-0.941334-4.32311-1.767151-6.74805-2.488281-2.42495-0.72113-5.03073-1.338982-7.82813-1.865234-2.79739-0.526253-5.78724-0.961659-8.98242-1.31836-3.19518-0.3567-6.59459-0.633229-10.21289-0.845703-7.2366-0.424948-15.3447-0.58789-24.42578-0.58789h-37.01758c-0.01299 28.620251 10.94271 57.24544 32.87305 79.175781l68.52344-68.523438z" style="fill:#a6d74f"/>
   <path transform="matrix(2,0,0,2,212.96576,-228.76206)" d="m245.56836 128.0957v-28.726559c0-9.072611-0.1621-17.172938-0.58789-24.402344-0.2129-3.614703-0.49227-7.011234-0.84961-10.203125s-0.79319-6.178251-1.32031-8.972656c-0.52713-2.794405-1.14495-5.396115-1.86719-7.81836s-1.5495-4.664823-2.49219-6.740234-2.00098-3.984379-3.18945-5.738281c-1.18848-1.753903-2.50721-3.352827-3.9668-4.810547-1.32678-1.32508-2.80812-2.499289-4.3789-3.59961l-68.52344 68.523438c23.97621 23.976238 55.95005 34.740568 87.17578 32.488278z" style="fill:#76c22b"/>
   <path transform="matrix(2,0,0,2,212.96576,-228.76206)" d="m125.41797 240.43164h37.11914c9.08108 0 17.18918-0.16098 24.42578-0.58594 3.6183-0.21247 7.01771-0.49095 10.21289-0.84765 3.19518-0.35671 6.18503-0.7921 8.98242-1.31836 2.7974-0.52626 5.40318-1.1441 7.82813-1.86524 2.42494-0.72113 4.67022-1.54498 6.74805-2.48633 2.07782-0.94134 3.98809-2.00062 5.74414-3.1875 0.1391-0.09402 0.24368-0.2188 0.38086-0.31445l-68.56836-68.56836c-21.93032 21.93031-32.88604 50.55357-32.87305 79.17383z" style="fill:#1463a5"/>
   <path transform="matrix(2,0,0,2,212.96576,-228.76206)" d="m226.85938 229.82617c1.59445-1.11175 3.09158-2.30228 4.43554-3.64453 1.45959-1.45772 2.77832-3.05859 3.9668-4.8125 1.18847-1.75391 2.24676-3.66092 3.18945-5.73633s1.76995-4.31799 2.49219-6.74023c0.72224-2.42225 1.34006-5.02396 1.86719-7.81836 0.52712-2.7944 0.96297-5.78273 1.32031-8.97461 0.35734-3.19189 0.63671-6.58843 0.84961-10.20313 0.42579-7.22938 0.58789-15.32977 0.58789-24.40234v-28.72266c-31.2579-2.28316-63.27517 8.48413-87.27734 32.48633l68.56836 68.56836z" style="fill:#2b898f"/>
   <path transform="matrix(2,0,0,2,212.96576,-228.76206)" d="m5.5683594 128.66602v28.82812c0 9.07257 0.1620995 17.17296 0.5878906 24.40234 0.2128956 3.6147 0.4922655 7.01124 0.8496094 10.20313 0.3573439 3.19188 0.7931865 6.18021 1.3203125 8.97461s1.1449457 5.39611 1.8671871 7.81836c0.722242 2.42224 1.547543 4.66482 2.490235 6.74023 0.942691 2.07541 2.002932 3.98242 3.191406 5.73633s2.505252 3.35478 3.964844 4.8125c1.309869 1.30819 2.776645 2.46372 4.324218 3.55274l68.578126-68.57813c-23.976212-23.97621-55.948107-34.74252-87.173829-32.49023z" style="fill:#9b33ae"/>
   <path transform="matrix(2,0,0,2,212.96576,-228.76206)" d="m24.164062 229.73438c0.176893 0.12447 0.314009 0.2845 0.494141 0.40624 1.756042 1.18688 3.666314 2.24616 5.744141 3.1875 2.077826 0.94135 4.323102 1.7652 6.748047 2.48633 2.424944 0.72114 5.028775 1.33898 7.826171 1.86524 2.797397 0.52626 5.787241 0.96165 8.982422 1.31836 3.195182 0.3567 6.596543 0.63518 10.214844 0.84765 7.236602 0.42496 15.344701 0.58594 24.425781 0.58594h37.011721c0.03903-28.65414-10.91284-57.31909-32.869142-79.27539l-68.578126 68.57813z" style="fill:#7839b7"/>
   <path transform="matrix(2,0,0,2,212.96576,-228.76206)" d="m125.71875 16.431641h-37.119141c-9.08108 0-17.189179 0.162942-24.425781 0.58789-3.618301 0.212474-7.019662 0.489003-10.214844 0.845703-3.195181 0.356701-6.185025 0.792107-8.982422 1.31836-2.797396 0.526252-5.401227 1.144104-7.826171 1.865234-2.424945 0.72113-4.670221 1.546947-6.748047 2.488281-2.077827 0.941335-3.988099 1.998683-5.744141 3.185547-0.139473 0.094266-0.245283 0.218552-0.382812 0.314453l68.568359 68.570313c21.93031-21.930341 32.88799-50.55553 32.875-79.175781z" style="fill:#fdc92b"/>
   <path transform="matrix(2,0,0,2,212.96576,-228.76206)" d="m24.275391 27.037109c-1.594042 1.11155-3.091883 2.304543-4.435547 3.646485-1.459592 1.45772-2.77637 3.056644-3.964844 4.810547-1.188474 1.753902-2.248715 3.66287-3.191406 5.738281-0.942692 2.075411-1.767993 4.317989-2.490235 6.740234-0.7222414 2.422245-1.3400611 5.023955-1.8671871 7.81836s-0.9629686 5.780765-1.3203125 8.972656-0.6367138 6.588422-0.8496094 10.203125c-0.4257911 7.229406-0.5878906 15.329733-0.5878906 24.402344v28.722659c31.257899 2.28316 63.273218-8.48217 87.275391-32.484378l-68.568359-68.570313z" style="fill:#f34f17"/>
  </g>
 </g>
 <g transform="translate(-26.432006,-27.568012)" style="enable-background:new">
  <path d="M 272,156 V 126.9375 C 272,54.35691 261.6174,44 188.96875,44 h -73.9375 C 42.3826,44 32,54.35691 32,126.9375 V 156 Z" style="opacity:.05"/>
  <path d="M 115.03125,44 C 42.3826,44 32,54.356621 32,126.9375 v 58.125 C 32,257.64309 42.3826,268 115.03125,268 H 152 V 44 Z" style="opacity:.05"/>
 </g>
 <path d="m125.72069 16.468531c61.85592 0 112 50.14408 112 112 0 61.85592-50.14408 112-112 112-61.855883 0-112-50.14408-112-112 0-61.855919 50.144117-112 112-112z" style="fill:#ffffff;opacity:.1"/>
 <path d="m125.56799 48.431988c44.1828 0 80 35.8172 80 80.000002 0 44.1828-35.8172 80-80 80-44.182776 0-79.999996-35.8172-79.999996-80 0-44.182802 35.81722-80.000002 79.999996-80.000002z" style="fill:#ffffff;opacity:.1"/>
 <circle cx="125.568" cy="128.432" r="46.5" style="fill:#ffffff;opacity:.1"/>
 <path transform="matrix(.5 0 0 .5 -18.432006 122.43199)" d="M 361.9375,-212 C 507.2348,-212 528,-191.28677 528,-46.125 V 70.125 C 528,215.28618 507.2348,236 361.9375,236 H 214.0625 C 68.7652,236 48,215.28618 48,70.125 V -46.125 C 48,-191.28677 68.7652,-212 214.0625,-212 Z" clip-path="url(#clipPath1082-3)" style="fill:none;opacity:.6;stroke-linecap:round;stroke-linejoin:round;stroke-width:8;stroke:url(#linearGradient1108)"/>
</svg>

<svg xmlns="http://www.w3.org/2000/svg" xmlns:xlink="http://www.w3.org/1999/xlink" width="256" height="256" version="1.1" viewBox="0 0 256 256">
 <defs>
  <linearGradient id="linearGradient1108" x1="296" x2="296" y1="-212" y2="236" gradientUnits="userSpaceOnUse" xlink:href="#linearGradient1013"/>
  <linearGradient id="linearGradient1013">
   <stop style="stop-color:#ffffff" offset="0"/>
   <stop offset=".125" style="stop-color:#ffffff;stop-opacity:0.09803922"/>
   <stop offset=".925" style="stop-color:#000000;stop-opacity:0.09803922"/>
   <stop style="stop-color:#000000;stop-opacity:0.49803922" offset="1"/>
  </linearGradient>
  <clipPath id="clipPath1082-3" clipPathUnits="userSpaceOnUse">
   <path style="fill:#8c59d9" d="M 361.9375,-212 C 507.2348,-212 528,-191.28677 528,-46.125 V 70.125 C 528,215.28618 507.2348,236 361.9375,236 H 214.0625 C 68.7652,236 48,215.28618 48,70.125 V -46.125 C 48,-191.28677 68.7652,-212 214.0625,-212 Z"/>
  </clipPath>
  <clipPath id="clipPath951" clipPathUnits="userSpaceOnUse">
   <path d="M 188.96875,44 C 261.6174,44 272,54.356615 272,126.9375 v 58.125 C 272,257.64309 261.6174,268 188.96875,268 h -73.9375 C 42.3826,268 32,257.64309 32,185.0625 v -58.125 C 32,54.356615 42.3826,44 115.03125,44 Z" style="fill:#8c59d9"/>
  </clipPath>
  <filter id="filter1010" width="1.046" height="1.05" x="-.02" y="-.03" style="color-interpolation-filters:sRGB">
   <feGaussianBlur stdDeviation="2.32"/>
  </filter>
 </defs>
 <path d="M 5.5683594 101.36914 L 5.5683594 157.49414 C 5.5683594 166.56671 5.7304589 174.6671 6.15625 181.89648 C 6.3691456 185.51118 6.6485155 188.90772 7.0058594 192.09961 C 7.3632033 195.29149 7.7990459 198.27982 8.3261719 201.07422 C 8.8532979 203.86862 9.4711176 206.47033 10.193359 208.89258 C 10.915601 211.31482 11.740902 213.5574 12.683594 215.63281 C 13.626285 217.70822 14.686526 219.61523 15.875 221.36914 C 17.063474 223.12305 18.380252 224.72392 19.839844 226.18164 C 21.299435 227.63937 22.902161 228.95375 24.658203 230.14062 C 26.414245 231.3275 28.324517 232.38678 30.402344 233.32812 C 32.48017 234.26947 34.725446 235.09332 37.150391 235.81445 C 39.575335 236.53559 42.179166 237.15343 44.976562 237.67969 C 47.773959 238.20595 50.763803 238.64134 53.958984 238.99805 C 57.154166 239.35475 60.555527 239.63323 64.173828 239.8457 C 71.41043 240.27066 79.518528 240.43164 88.599609 240.43164 L 162.53711 240.43164 C 171.61819 240.43164 179.72629 240.27066 186.96289 239.8457 C 190.58119 239.63323 193.9806 239.35475 197.17578 238.99805 C 200.37096 238.64134 203.36081 238.20595 206.1582 237.67969 C 208.9556 237.15343 211.56138 236.53559 213.98633 235.81445 C 216.41127 235.09332 218.65655 234.26947 220.73438 233.32812 C 222.8122 232.38678 224.72247 231.3275 226.47852 230.14062 C 228.23456 228.95375 229.83533 227.63937 231.29492 226.18164 C 232.75451 224.72392 234.07324 223.12305 235.26172 221.36914 C 236.45019 219.61523 237.50848 217.70822 238.45117 215.63281 C 239.39386 213.5574 240.22112 211.31482 240.94336 208.89258 C 241.6656 206.47033 242.28342 203.86862 242.81055 201.07422 C 243.33767 198.27982 243.77352 195.29149 244.13086 192.09961 C 244.4882 188.90772 244.76757 185.51118 244.98047 181.89648 C 245.40626 174.6671 245.56836 166.56671 245.56836 157.49414 L 245.56836 101.36914 C 245.56836 28.788249 235.18576 18.431641 162.53711 18.431641 L 88.599609 18.431641 C 15.950955 18.431641 5.5683594 28.788249 5.5683594 101.36914 z" style="opacity:0.2;filter:url(#filter1010)"/>
 <g clip-path="url(#clipPath951)" transform="translate(-26.432006,-27.568012)" style="enable-background:new">
  <g transform="matrix(0.5,0,0,0.5,-80.050872,141.94904)" style="enable-background:new">
   <path d="m 622.248,-130.2479 c -1.59052,1.59052 65.75205,158.248 65.75205,158.248 L 622.248,186.2481 c 0,0 -158.248,-83.64916 -158.248,-158.248 0,-74.598837 158.248,-158.248 158.248,-158.248 z" style="fill:#46a926"/>
   <path d="m 305.75211,186.2481 c 1.59041,-1.59052 -65.75205,-158.248 -65.75205,-158.248 l 65.75205,-158.248 c 0,0 158.24789,83.649163 158.24789,158.248 0,74.59884 -158.24789,158.248 -158.24789,158.248 z" style="fill:#f22c42"/>
   <path style="fill:#ffda64" d="M 622.24789,-130.2479 C 620.65748,-128.65738 464,-195.99995 464,-195.99995 L 305.752,-130.2479 464,28.0001 Z"/>
   <path style="fill:#2f5fdd" d="M 305.75211,186.2481 464,251.7965 c 0,0 156.65748,-67.13892 158.248,-65.5484 L 464,28.0001 Z"/>
   <path d="M 226.91602 27.083984 C 226.75878 26.973842 226.6383 26.830651 226.47852 26.722656 C 224.72247 25.535792 222.8122 24.478444 220.73438 23.537109 C 218.65655 22.595775 216.41127 21.769958 213.98633 21.048828 C 211.56138 20.327698 208.9556 19.709846 206.1582 19.183594 C 203.36081 18.657341 200.37096 18.221935 197.17578 17.865234 C 193.9806 17.508534 190.58119 17.232005 186.96289 17.019531 C 179.72629 16.594583 171.61819 16.431641 162.53711 16.431641 L 125.51953 16.431641 C 125.50654 45.051892 136.46224 73.677081 158.39258 95.607422 L 226.91602 27.083984 z" transform="matrix(2,0,0,2,212.96576,-228.76206)" style="fill:#a6d74f"/>
   <path d="M 245.56836 128.0957 L 245.56836 99.369141 C 245.56836 90.29653 245.40626 82.196203 244.98047 74.966797 C 244.76757 71.352094 244.4882 67.955563 244.13086 64.763672 C 243.77352 61.571781 243.33767 58.585421 242.81055 55.791016 C 242.28342 52.996611 241.6656 50.394901 240.94336 47.972656 C 240.22112 45.550411 239.39386 43.307833 238.45117 41.232422 C 237.50848 39.157011 236.45019 37.248043 235.26172 35.494141 C 234.07324 33.740238 232.75451 32.141314 231.29492 30.683594 C 229.96814 29.358514 228.4868 28.184305 226.91602 27.083984 L 158.39258 95.607422 C 182.36879 119.58366 214.34263 130.34799 245.56836 128.0957 z" transform="matrix(2,0,0,2,212.96576,-228.76206)" style="fill:#76c22b"/>
   <path d="M 125.41797 240.43164 L 162.53711 240.43164 C 171.61819 240.43164 179.72629 240.27066 186.96289 239.8457 C 190.58119 239.63323 193.9806 239.35475 197.17578 238.99805 C 200.37096 238.64134 203.36081 238.20595 206.1582 237.67969 C 208.9556 237.15343 211.56138 236.53559 213.98633 235.81445 C 216.41127 235.09332 218.65655 234.26947 220.73438 233.32812 C 222.8122 232.38678 224.72247 231.3275 226.47852 230.14062 C 226.61762 230.0466 226.7222 229.92182 226.85938 229.82617 L 158.29102 161.25781 C 136.3607 183.18812 125.40498 211.81138 125.41797 240.43164 z" transform="matrix(2,0,0,2,212.96576,-228.76206)" style="fill:#1463a5"/>
   <path d="M 226.85938 229.82617 C 228.45383 228.71442 229.95096 227.52389 231.29492 226.18164 C 232.75451 224.72392 234.07324 223.12305 235.26172 221.36914 C 236.45019 219.61523 237.50848 217.70822 238.45117 215.63281 C 239.39386 213.5574 240.22112 211.31482 240.94336 208.89258 C 241.6656 206.47033 242.28342 203.86862 242.81055 201.07422 C 243.33767 198.27982 243.77352 195.29149 244.13086 192.09961 C 244.4882 188.90772 244.76757 185.51118 244.98047 181.89648 C 245.40626 174.6671 245.56836 166.56671 245.56836 157.49414 L 245.56836 128.77148 C 214.31046 126.48832 182.29319 137.25561 158.29102 161.25781 L 226.85938 229.82617 z" transform="matrix(2,0,0,2,212.96576,-228.76206)" style="fill:#2b898f"/>
   <path d="M 5.5683594 128.66602 L 5.5683594 157.49414 C 5.5683594 166.56671 5.7304589 174.6671 6.15625 181.89648 C 6.3691456 185.51118 6.6485155 188.90772 7.0058594 192.09961 C 7.3632033 195.29149 7.7990459 198.27982 8.3261719 201.07422 C 8.8532979 203.86862 9.4711176 206.47033 10.193359 208.89258 C 10.915601 211.31482 11.740902 213.5574 12.683594 215.63281 C 13.626285 217.70822 14.686526 219.61523 15.875 221.36914 C 17.063474 223.12305 18.380252 224.72392 19.839844 226.18164 C 21.149713 227.48983 22.616489 228.64536 24.164062 229.73438 L 92.742188 161.15625 C 68.765976 137.18004 36.794081 126.41373 5.5683594 128.66602 z" transform="matrix(2,0,0,2,212.96576,-228.76206)" style="fill:#9b33ae"/>
   <path d="M 24.164062 229.73438 C 24.340955 229.85885 24.478071 230.01888 24.658203 230.14062 C 26.414245 231.3275 28.324517 232.38678 30.402344 233.32812 C 32.48017 234.26947 34.725446 235.09332 37.150391 235.81445 C 39.575335 236.53559 42.179166 237.15343 44.976562 237.67969 C 47.773959 238.20595 50.763803 238.64134 53.958984 238.99805 C 57.154166 239.35475 60.555527 239.63323 64.173828 239.8457 C 71.41043 240.27066 79.518529 240.43164 88.599609 240.43164 L 125.61133 240.43164 C 125.65036 211.7775 114.69849 183.11255 92.742188 161.15625 L 24.164062 229.73438 z" transform="matrix(2,0,0,2,212.96576,-228.76206)" style="fill:#7839b7"/>
   <path d="M 125.71875 16.431641 L 88.599609 16.431641 C 79.518529 16.431641 71.41043 16.594583 64.173828 17.019531 C 60.555527 17.232005 57.154166 17.508534 53.958984 17.865234 C 50.763803 18.221935 47.773959 18.657341 44.976562 19.183594 C 42.179166 19.709846 39.575335 20.327698 37.150391 21.048828 C 34.725446 21.769958 32.48017 22.595775 30.402344 23.537109 C 28.324517 24.478444 26.414245 25.535792 24.658203 26.722656 C 24.51873 26.816922 24.41292 26.941208 24.275391 27.037109 L 92.84375 95.607422 C 114.77406 73.677081 125.73174 45.051892 125.71875 16.431641 z" transform="matrix(2,0,0,2,212.96576,-228.76206)" style="fill:#fdc92b"/>
   <path d="M 24.275391 27.037109 C 22.681349 28.148659 21.183508 29.341652 19.839844 30.683594 C 18.380252 32.141314 17.063474 33.740238 15.875 35.494141 C 14.686526 37.248043 13.626285 39.157011 12.683594 41.232422 C 11.740902 43.307833 10.915601 45.550411 10.193359 47.972656 C 9.4711176 50.394901 8.8532979 52.996611 8.3261719 55.791016 C 7.7990459 58.585421 7.3632033 61.571781 7.0058594 64.763672 C 6.6485155 67.955563 6.3691456 71.352094 6.15625 74.966797 C 5.7304589 82.196203 5.5683594 90.29653 5.5683594 99.369141 L 5.5683594 128.0918 C 36.826258 130.37496 68.841577 119.60963 92.84375 95.607422 L 24.275391 27.037109 z" transform="matrix(2,0,0,2,212.96576,-228.76206)" style="fill:#f34f17"/>
  </g>
 </g>
 <g style="enable-background:new" transform="translate(-26.432006,-27.568012)">
  <path style="opacity:0.05" d="M 272,156 V 126.9375 C 272,54.35691 261.6174,44 188.96875,44 h -73.9375 C 42.3826,44 32,54.35691 32,126.9375 V 156 Z"/>
  <path style="opacity:0.05" d="M 115.03125,44 C 42.3826,44 32,54.356621 32,126.9375 v 58.125 C 32,257.64309 42.3826,268 115.03125,268 H 152 V 44 Z"/>
 </g>
 <path d="m 125.72069,16.468531 c 61.85592,0 112,50.14408 112,111.999999 0,61.85592 -50.14408,112 -112,112 -61.855883,0 -112,-50.14408 -112,-112 0,-61.855919 50.144117,-111.999999 112,-111.999999 z" style="opacity:0.1;fill:#ffffff"/>
 <path style="opacity:0.1;fill:#ffffff" d="m 125.56799,48.431988 c 44.1828,0 80,35.8172 80,80.000002 0,44.1828 -35.8172,80 -80,80 -44.182776,0 -79.999996,-35.8172 -79.999996,-80 0,-44.182802 35.81722,-80.000002 79.999996,-80.000002 z"/>
 <circle style="opacity:0.1;fill:#ffffff" cx="125.568" cy="128.432" r="46.5"/>
 <path style="opacity:0.6;fill:none;stroke:url(#linearGradient1108);stroke-width:8;stroke-linecap:round;stroke-linejoin:round" d="M 361.9375,-212 C 507.2348,-212 528,-191.28677 528,-46.125 V 70.125 C 528,215.28618 507.2348,236 361.9375,236 H 214.0625 C 68.7652,236 48,215.28618 48,70.125 V -46.125 C 48,-191.28677 68.7652,-212 214.0625,-212 Z" clip-path="url(#clipPath1082-3)" transform="matrix(0.5,0,0,0.5,-18.432006,122.43199)"/>
</svg>
